Yaru++/mimetypes/16/text-x-fortran.svg

<svg height="16" width="16" xmlns="http://www.w3.org/2000/svg">
  <path d="m1 .01079083v1.14234277h.8568195c.3965714 0 .7201981-.030238 1.0353203.070681.3151526.1009183.5688621.3768374.698132.7889018.2584191.8242044.2644666 2.306797.2651848 5.4265726-.0004234 1.1873215-.00794 2.0812237-.025324 2.849073h.013229l-.00454.290282c-.019277 1.213893-.05439 2.444907-.1241258 2.868084-.069509.423177-.213894.64584-.3496991.802018-.1530406.176134-.3332951.33337-.5746072.436254-.2412969.102808-.5299725.153079-.919593.172355-.4023127.0189-.6669985.0076-.8707251 0v1.142645h7.9969412v-1.142645c-.208376.0038-.485637.0189-.868809 0-.7125401-.030238-1.1215848-.247949-1.4375008-.563253-.2126089-.21242-.3608115-.500736-.4337524-.957174-.0725327-.456401-.0987261-1.679856-.116075-2.758171v-2.0041935h.8568234c1.1701088 0 2.1292148.2577765 2.6769898.971273l.01928.018899.01323.030238c.3744184.8020175.4128954 1.6549095.4194424 2.4031035h1.155257v-7.4257388h-1.142701l-.000586.329591c-.000598.8805977-.3185964 1.5549742-.8869484 1.9646573-.568359.4100611-1.3881451.85036-2.2538619.5611741h-.8568195v-6.2833581h2.5704514c2.2677324 0 3.2369454-.018899 3.8578884.3465997l.02419.011339.02117.018898c.730071.6509045 1.124125 1.349509 1.319812 2.0929031.173111.6569142.192727 1.3529107.196356 2.0969095h1.148836v-5.71212927z" fill="#808080"/>
</svg>

<svg xmlns="http://www.w3.org/2000/svg" width="16" height="16" version="1.1">
 <path style="fill:#808080" d="M 1,0.01079083 V 1.1531336 h 0.8568195 c 0.3965714,0 0.7201981,-0.030238 1.0353203,0.070681 0.3151526,0.1009183 0.5688621,0.3768374 0.698132,0.7889018 0.2584191,0.8242044 0.2644666,2.306797 0.2651848,5.4265726 -4.234e-4,1.1873215 -0.00794,2.0812237 -0.025324,2.849073 h 0.013229 l -0.00454,0.290282 c -0.019277,1.213893 -0.05439,2.444907 -0.1241258,2.868084 -0.069509,0.423177 -0.213894,0.64584 -0.3496991,0.802018 -0.1530406,0.176134 -0.3332951,0.33337 -0.5746072,0.436254 -0.2412969,0.102808 -0.5299725,0.153079 -0.919593,0.172355 -0.4023127,0.0189 -0.6669985,0.0076 -0.8707251,0 V 16 h 7.9969412 v -1.142645 c -0.208376,0.0038 -0.485637,0.0189 -0.868809,0 C 7.4156635,14.827117 7.0066188,14.609406 6.6907028,14.294102 6.4780939,14.081682 6.3298913,13.793366 6.2569504,13.336928 6.1844177,12.880527 6.1582243,11.657072 6.1408754,10.578757 V 8.5745635 h 0.8568234 c 1.1701088,0 2.1292148,0.2577765 2.6769898,0.971273 l 0.01928,0.018899 0.01323,0.030238 c 0.3744184,0.8020175 0.4128954,1.6549095 0.4194424,2.4031035 h 1.155257 V 4.5723382 h -1.142701 l -5.86e-4,0.329591 C 10.138013,5.7825269 9.8200146,6.4569034 9.2516626,6.8665865 8.6833036,7.2766476 7.8635175,7.7169465 6.9978007,7.4277606 H 6.1409812 V 1.1444025 h 2.5704514 c 2.2677324,0 3.2369454,-0.018899 3.8578884,0.3465997 l 0.02419,0.011339 0.02117,0.018898 c 0.730071,0.6509045 1.124125,1.349509 1.319812,2.0929031 0.173111,0.6569142 0.192727,1.3529107 0.196356,2.0969095 h 1.148836 v -5.71212927 z"/>
</svg>
